X: 38508
T: Steering By Aldebaran
R: waltz
M: 3/4
K: Dminor
|:"Dm"A,D FG AB|A6|"C"GF ED "Am"G>D|"Am"E6|
"Dm"A,D FG AB|A6|"C"GF ED "Am"F>E|1 "Dm"D6:|2 "Dm"D4 A2||
|:"Dm"dA de fe|"Bb"d4 ef|"C"ed cA GD|"Am"E4 A2|
"Dm"dA de fe|"Bb"d4 ef|"C"ed cA "Am"e>c|1 "Dm"d4 A2:|2 "Dm"d6||

